public/logos/IZ.svg

<?xml version="1.0" encoding="UTF-8"?>
<svg xmlns="http://www.w3.org/2000/svg" xmlns:xlink="http://www.w3.org/1999/xlink" width="123.16pt" height="59pt" viewBox="0 0 123.16 59" version="1.1">
<defs>
<clipPath id="clip1">
  <path d="M 96 14 L 123.160156 14 L 123.160156 45 L 96 45 Z M 96 14 "/>
</clipPath>
<clipPath id="clip2">
  <path d="M 83 47 L 123.160156 47 L 123.160156 59 L 83 59 Z M 83 47 "/>
</clipPath>
</defs>
<g id="surface1">
<path style=" stroke:none;fill-rule:nonzero;fill:rgb(82.980347%,3.160095%,54.893494%);fill-opacity:1;" d="M 8.71875 34.597656 C 8.71875 34.414062 8.75 34.207031 8.816406 33.984375 L 0.0273438 35.585938 C 0.0507812 35.910156 0.09375 36.226562 0.144531 36.527344 L 8.753906 34.964844 C 8.730469 34.832031 8.71875 34.707031 8.71875 34.597656 "/>
<path style=" stroke:none;fill-rule:nonzero;fill:rgb(20.13092%,61.506653%,53.234863%);fill-opacity:1;" d="M 12.800781 44.0625 C 14.449219 44.0625 16.296875 43.851562 18.09375 43.527344 L 26.722656 41.957031 L 26.722656 36.792969 L 2.769531 41.148438 C 5.351562 43.34375 9.316406 44.0625 12.800781 44.0625 "/>
<path style=" stroke:none;fill-rule:nonzero;fill:rgb(96.199036%,62.637329%,5.674744%);fill-opacity:1;" d="M 13.453125 37.9375 C 10.972656 37.9375 9.671875 36.894531 9.09375 35.878906 L 0.363281 37.464844 C 0.691406 38.585938 1.234375 39.53125 1.929688 40.324219 L 16.039062 37.761719 C 15.378906 37.863281 14.53125 37.9375 13.453125 37.9375 "/>
<path style=" stroke:none;fill-rule:nonzero;fill:rgb(38.722229%,73.646545%,19.328308%);fill-opacity:1;" d="M 0 34.613281 L 9.453125 32.894531 C 10.164062 32.109375 11.457031 31.441406 13.636719 31.441406 C 14.914062 31.441406 15.832031 31.515625 16.492188 31.613281 L 26.71875 29.753906 L 26.71875 26.488281 L 0.832031 31.199219 C 0.328125 32.15625 0.0234375 33.285156 0 34.613281 "/>
<path style=" stroke:none;fill-rule:nonzero;fill:rgb(15.345764%,53.390503%,23.776245%);fill-opacity:1;" d="M 12.339844 26.058594 C 9.484375 26.058594 4.191406 26.808594 1.5625 30.089844 L 18.089844 27.082031 C 18.089844 27.082031 16.234375 26.058594 12.339844 26.058594 "/>
<path style=" stroke:none;fill-rule:nonzero;fill:rgb(63.743591%,8.268738%,51.008606%);fill-opacity:1;" d="M 20.46875 15.875 L 1.519531 19.320312 L 4.730469 24.019531 C 6.398438 22.996094 9.738281 21.515625 12.617188 21.515625 C 15.492188 21.515625 18.089844 23.089844 18.089844 25.316406 L 18.089844 27.082031 L 26.4375 25.5625 L 26.714844 25.515625 C 26.597656 21.011719 24.324219 17.648438 20.46875 15.875 "/>
<path style=" stroke:none;fill-rule:nonzero;fill:rgb(90.440369%,20.454407%,12.90741%);fill-opacity:1;" d="M 13.265625 14.460938 C 5.007812 14.460938 0.925781 18.453125 0.925781 18.453125 L 18.722656 15.214844 C 17.105469 14.722656 15.277344 14.460938 13.265625 14.460938 "/>
<path style=" stroke:none;fill-rule:nonzero;fill:rgb(28.448486%,61.737061%,86.341858%);fill-opacity:1;" d="M 18.089844 37.386719 L 26.71875 35.816406 L 26.71875 32.671875 L 18.089844 34.242188 L 18.089844 37.386719 "/>
<path style=" stroke:none;fill-rule:nonzero;fill:rgb(52.22168%,45.957947%,18.475342%);fill-opacity:1;" d="M 18.089844 33.265625 L 26.71875 31.695312 L 26.71875 30.730469 L 18.089844 32.300781 L 18.089844 33.265625 "/>
<path style=" stroke:none;fill-rule:nonzero;fill:rgb(19.851685%,28.886414%,64.906311%);fill-opacity:1;" d="M 93.316406 0 L 84.574219 1.589844 L 84.574219 10.386719 L 93.316406 8.796875 L 93.316406 0 "/>
<g clip-path="url(#clip1)" clip-rule="nonzero">
<path style=" stroke:none;fill-rule:nonzero;fill:rgb(19.851685%,28.886414%,64.906311%);fill-opacity:1;" d="M 109.679688 14.398438 C 101.402344 14.398438 97.308594 18.398438 97.308594 18.398438 L 101.125 23.976562 C 102.796875 22.953125 106.144531 21.464844 109.027344 21.464844 C 111.910156 21.464844 114.515625 23.046875 114.515625 25.277344 L 114.515625 27.046875 C 114.515625 27.046875 112.652344 26.023438 108.75 26.023438 C 104.84375 26.023438 96.382812 27.417969 96.382812 34.761719 C 96.382812 42.109375 103.449219 44.0625 109.214844 44.0625 C 110.867188 44.0625 112.71875 43.851562 114.515625 43.523438 L 123.160156 41.953125 L 123.160156 25.835938 C 123.160156 18.769531 117.953125 14.398438 109.679688 14.398438 M 114.515625 37.371094 L 112.671875 37.710938 C 111.984375 37.835938 111.066406 37.925781 109.863281 37.925781 C 106.238281 37.925781 105.121094 35.691406 105.121094 34.578125 C 105.121094 33.460938 106.238281 31.414062 110.050781 31.414062 C 113.863281 31.414062 114.515625 32.066406 114.515625 32.066406 L 114.515625 37.371094 "/>
</g>
<path style=" stroke:none;fill-rule:nonzero;fill:rgb(19.851685%,28.886414%,64.906311%);fill-opacity:1;" d="M 84.574219 15.191406 L 84.574219 43.542969 L 93.316406 41.953125 L 93.316406 13.601562 L 84.574219 15.191406 "/>
<path style=" stroke:none;fill-rule:nonzero;fill:rgb(19.851685%,28.886414%,64.906311%);fill-opacity:1;" d="M 38.238281 14.398438 L 30.777344 15.753906 L 30.777344 43.542969 L 38.238281 42.183594 L 39.519531 41.953125 L 39.519531 27.007812 C 39.519531 23.875 42.644531 21.921875 46.011719 21.789062 C 47.113281 21.746094 48.316406 21.886719 49.304688 22.109375 L 49.304688 14.480469 C 48.210938 14.285156 47.492188 14.183594 46.011719 14.230469 C 41.832031 14.359375 39.449219 17.078125 38.238281 19.207031 L 38.238281 14.398438 "/>
<path style=" stroke:none;fill-rule:nonzero;fill:rgb(19.851685%,28.886414%,64.906311%);fill-opacity:1;" d="M 75.65625 23.773438 C 78.601562 20.222656 80.234375 17.003906 80.890625 15.859375 L 69.671875 17.898438 C 67.902344 20.621094 64.640625 24.414062 61.785156 26.605469 L 61.785156 5.734375 L 53.046875 7.324219 C 53.046875 12.058594 53.046875 24.457031 53.046875 29.277344 L 53.046875 43.542969 L 61.785156 41.953125 L 61.785156 34.964844 C 62.871094 34.453125 63.554688 33.925781 63.554688 33.925781 L 72.117188 43.636719 L 81.738281 41.886719 L 70.621094 29.277344 C 71.675781 28.230469 73.695312 26.136719 75.65625 23.773438 "/>
<g clip-path="url(#clip2)" clip-rule="nonzero">
<path style=" stroke:none;fill-rule:nonzero;fill:rgb(19.851685%,28.886414%,64.906311%);fill-opacity:1;" d="M 93.308594 47.691406 L 95.332031 47.320312 L 95.332031 51.769531 L 93.308594 52.140625 Z M 121.636719 53.4375 L 121.824219 52.574219 C 122.082031 51.378906 122.296875 50.15625 122.457031 48.945312 L 122.671875 47.332031 L 120.707031 47.691406 C 120.589844 48.675781 120.433594 49.707031 120.238281 50.761719 L 120.085938 51.566406 L 116.84375 47.28125 L 114.609375 47.691406 L 115.65625 48.933594 L 115.335938 50.414062 C 115.078125 51.613281 114.863281 52.832031 114.703125 54.042969 L 114.488281 55.65625 L 116.453125 55.296875 C 116.601562 54.046875 116.800781 52.792969 117.046875 51.558594 L 117.207031 50.765625 L 120.921875 55.707031 L 123.160156 55.296875 Z M 108.890625 47.433594 C 107.085938 47.433594 105.949219 48.078125 105.488281 48.402344 L 106.355469 49.667969 C 106.941406 49.371094 107.851562 49.019531 108.683594 49.019531 C 109.855469 49.019531 110.773438 49.707031 110.773438 50.582031 L 110.773438 55.667969 L 112.765625 55.304688 L 112.765625 50.667969 C 112.765625 48.640625 111.316406 47.433594 108.890625 47.433594 M 89.027344 52.976562 C 89.027344 53.582031 88.507812 54.050781 87.75 54.3125 C 87.488281 54.398438 87.339844 54.421875 87.339844 54.421875 L 87.28125 54.082031 C 86.921875 51.800781 86.410156 49.527344 85.753906 47.324219 L 83.890625 47.707031 C 84.480469 49.699219 85.066406 52.15625 85.40625 54.355469 C 84.882812 54.210938 84.265625 53.921875 84.015625 53.800781 L 83.074219 55.0625 C 83.582031 55.394531 84.824219 56.035156 86.785156 56.035156 C 89.398438 56.035156 91.019531 54.796875 91.019531 52.800781 L 91.019531 47.332031 L 89.027344 47.746094 Z M 97.507812 59 L 99.53125 58.632812 L 99.53125 50.808594 L 97.507812 51.179688 Z M 100.25 47.445312 C 98.933594 47.445312 97.71875 47.65625 97.195312 47.765625 L 97.195312 49.5 C 97.835938 49.359375 99.035156 49.128906 100.050781 49.128906 C 100.722656 49.128906 101.914062 49.21875 102.394531 49.824219 C 102.714844 50.234375 102.820312 50.824219 102.707031 51.585938 C 102.617188 52.179688 102.433594 52.800781 102.097656 53.292969 C 101.863281 53.636719 101.523438 53.933594 101.21875 54.167969 L 102.292969 55.660156 C 102.679688 55.375 103.292969 54.867188 103.699219 54.273438 C 104.042969 53.773438 104.316406 53.0625 104.46875 52.273438 C 104.8125 50.503906 104.578125 49.148438 103.8125 48.457031 C 102.835938 47.578125 101.160156 47.445312 100.25 47.445312 "/>
</g>
</g>
</svg>

<svg xmlns="http://www.w3.org/2000/svg" width="164.213" height="59pt" viewBox="0 0 123.16 59"><defs><clipPath id="a"><path d="M96 14h27.16v31H96Zm0 0"/></clipPath><clipPath id="b"><path d="M83 47h40.16v12H83Zm0 0"/></clipPath></defs><path d="M8.719 34.598q-.001-.278.097-.614L.027 35.586c.024.324.067.64.118.941l8.609-1.562a2 2 0 0 1-.035-.367" style="stroke:none;fill-rule:nonzero;fill:#d4088c;fill-opacity:1"/><path d="M12.8 44.063c1.65 0 3.497-.211 5.294-.536l8.629-1.57v-5.164L2.77 41.148c2.582 2.196 6.546 2.914 10.03 2.914" style="stroke:none;fill-rule:nonzero;fill:#339d88;fill-opacity:1"/><path d="M13.453 37.938c-2.48 0-3.781-1.043-4.36-2.06l-8.73 1.587a7.5 7.5 0 0 0 1.567 2.86l14.11-2.563a17 17 0 0 1-2.587.175" style="stroke:none;fill-rule:nonzero;fill:#f5a00e;fill-opacity:1"/><path d="m0 34.613 9.453-1.718c.711-.786 2.004-1.454 4.184-1.454 1.277 0 2.195.075 2.855.172l10.227-1.86v-3.265L.832 31.2c-.504.957-.809 2.086-.832 3.414" style="stroke:none;fill-rule:nonzero;fill:#63bc31;fill-opacity:1"/><path d="M12.34 26.059c-2.856 0-8.149.75-10.777 4.03l16.527-3.007s-1.856-1.023-5.75-1.023" style="stroke:none;fill-rule:nonzero;fill:#27883d;fill-opacity:1"/><path d="M20.469 15.875 1.519 19.32l3.211 4.7c1.668-1.024 5.008-2.504 7.887-2.504 2.875 0 5.473 1.574 5.473 3.8v1.766l8.348-1.52.277-.046c-.117-4.504-2.39-7.868-6.246-9.641" style="stroke:none;fill-rule:nonzero;fill:#a31582;fill-opacity:1"/><path d="M13.266 14.46c-8.258 0-12.34 3.993-12.34 3.993l17.797-3.238c-1.618-.492-3.446-.754-5.457-.754" style="stroke:none;fill-rule:nonzero;fill:#e73421;fill-opacity:1"/><path d="m18.09 37.387 8.629-1.57v-3.145l-8.63 1.57z" style="stroke:none;fill-rule:nonzero;fill:#499ddc;fill-opacity:1"/><path d="m18.09 33.266 8.629-1.57v-.966l-8.63 1.57z" style="stroke:none;fill-rule:nonzero;fill:#85752f;fill-opacity:1"/><path d="m93.316 0-8.742 1.59v8.797l8.742-1.59z" style="stroke:none;fill-rule:nonzero;fill:#334aa6;fill-opacity:1"/><g clip-path="url(#a)"><path d="M109.68 14.398c-8.278 0-12.371 4-12.371 4l3.816 5.579c1.672-1.024 5.02-2.512 7.902-2.512s5.489 1.582 5.489 3.812v1.77s-1.864-1.024-5.766-1.024c-3.906 0-12.367 1.395-12.367 8.739 0 7.347 7.066 9.3 12.832 9.3 1.652 0 3.504-.21 5.3-.539l8.645-1.57V25.836c0-7.066-5.207-11.438-13.48-11.438m4.836 22.973-1.844.34c-.688.125-1.606.215-2.809.215-3.625 0-4.742-2.235-4.742-3.348 0-1.117 1.117-3.164 4.93-3.164s4.465.652 4.465.652z" style="stroke:none;fill-rule:nonzero;fill:#334aa6;fill-opacity:1"/></g><path d="M84.574 15.191v28.352l8.742-1.59V13.602zM38.238 14.398l-7.46 1.356v27.789l7.46-1.36 1.282-.23V27.008c0-3.133 3.125-5.086 6.492-5.219 1.101-.043 2.304.098 3.293.32V14.48c-1.094-.195-1.813-.296-3.293-.25-4.18.13-6.563 2.848-7.774 4.977zM75.656 23.773c2.946-3.55 4.578-6.77 5.235-7.914L69.67 17.9c-1.769 2.722-5.03 6.515-7.886 8.706V5.735l-8.738 1.59v36.218l8.738-1.59v-6.988c1.086-.512 1.77-1.04 1.77-1.04l8.562 9.712 9.621-1.75-11.117-12.61a82 82 0 0 0 5.035-5.504" style="stroke:none;fill-rule:nonzero;fill:#334aa6;fill-opacity:1"/><g clip-path="url(#b)"><path d="m93.309 47.691 2.023-.37v4.449l-2.023.37Zm28.328 5.746.187-.863c.258-1.195.473-2.418.633-3.629l.215-1.613-1.965.36a48 48 0 0 1-.469 3.07l-.152.804-3.242-4.285-2.235.41 1.047 1.243-.32 1.48a46 46 0 0 0-.633 3.629l-.215 1.613 1.965-.36c.149-1.25.348-2.503.594-3.737l.16-.793 3.715 4.941 2.238-.41Zm-12.746-6.003c-1.805 0-2.942.644-3.403.968l.867 1.266c.586-.297 1.497-.648 2.329-.648 1.171 0 2.09.687 2.09 1.562v5.086l1.992-.363v-4.637c0-2.027-1.45-3.234-3.875-3.234m-19.864 5.543c0 .605-.52 1.074-1.277 1.336-.262.085-.41.109-.41.109l-.059-.34a52 52 0 0 0-1.527-6.758l-1.863.383c.59 1.992 1.175 4.45 1.515 6.648-.523-.144-1.14-.433-1.39-.554l-.942 1.261c.508.333 1.75.973 3.711.973 2.613 0 4.235-1.238 4.235-3.234v-5.469l-1.993.414ZM97.507 59l2.024-.367v-7.824l-2.023.37Zm2.743-11.555c-1.316 0-2.531.211-3.055.32V49.5c.64-.14 1.84-.371 2.856-.371.672 0 1.863.09 2.344.695.32.41.425 1 .312 1.762-.09.594-.273 1.215-.61 1.707-.234.344-.574.64-.878.875l1.074 1.492c.387-.285 1-.793 1.406-1.387.344-.5.617-1.21.77-2 .344-1.77.11-3.125-.656-3.816-.977-.879-2.653-1.012-3.563-1.012" style="stroke:none;fill-rule:nonzero;fill:#334aa6;fill-opacity:1"/></g></svg>
